X:1
T:Ein Feste Burg
T:Martin Agricola
T:Source : DDT 34---Leipzig---Breitkopf & Härtel---J.Wolf---1908. First print : Newe Deudsche Geistliche Gesenge---Wittemberg---G.Rhau---1544. Editor : André Vierendeels (02/08/17).
T:Notes : Original clefs : C1, C3, C3 F4 Original note values have been halved Editorial accidentals above the staff
T:Ein Feste Burg
T:©
T:©
T:©
C:Martin Agricola
Z:©
%%score [ 1 [ 2 3 ] 4 ]
L:1/8
Q:1/4=123
M:2/2
K:F
V:1 treble nm="Soprano" snm="S"
V:2 treble-8 nm="Tenor 1" snm="T 1"
V:3 treble-8 nm="Tenor 2" snm="T 2"
V:4 bass nm="Bass" snm="B"
V:1
 z4 z2 c2 | c4 c4 | A4 A2 d2- | d2 c3 A B2 | c4 z2 c2 | B4 A4- | A2 G2 F2 D2 | E4 F2 G2- | %8
w: Ein|fe- ste|Burg ist un-|* * * ser|Gott, ein|gu- *|* te Wehr und|Waf- * *|
w: Er|hilft uns|frei aus al-|* * * ler|Not, die|uns itzt|_ hat be- trof-||
 GF F4 E2 |1 F8 :|2 F8- || F4 z2 F2 | F2 A4 GF | E4 z2 c2 | c2 A3 B c2 | B4 G4 | A4 z2 A2 | %17
w: |fen.||* Der|alt bö- se _|Feind, mit|Ernst er's _ _|itzt _|meint. Grosz|
w: ||fen.|_||||||
 G2 c2 A2 d2- | dc c3 B/A/ B2 | c8 | z2 B2 B4 | A2 B4 AG | F4 z2 F2 | E4 D4 | C2 c4 B2 | %25
w: Macht _ und viel|_ _ _ _ _ _|List|sein grau-|sam Rü- stung _|ist. Auf|Erd ist|nicht seins glei-|
w: ||||||||
 A2 G3 F G2- | GF F2 ED E2 | F8 |] %28
w: ||chen.|
w: |||
V:2
 z4 z2 c2 | c4 c4 | f3 e fg a2- | a2 g2 a2 gf | e2 f3 e c2 | d2 B2 c4- | c4 z4 | g4 f2 d2- | %8
w: Ein|fe- ste|Burg _ _ _ _|_ ist un- ser _|Gott, ein _ _|gu- * te|_|Wehr _ _|
w: Er|hilft uns|frei _ _ _ _|_ aus al- ler _|Not, die _ _|uns _ itzt|_|hat be- trof-|
 d2 c2 c4 |1 c8 :|2 c8 || z2 F2 F2 A2- | AGFE F4 | G8 | A8 | z2 B2 c4 | c6 c2- | cBAG F2 A2 | %18
w: _ und Waf-|fen,||Der alt bö-|* * * * se|Feind,|_|mit Ernst|er's itzt|_ _ _ _ meint. Grosz|
w: ||fen.||||||||
 G2 g6 | e4 f4 | z2 f2 f4 | f6 e2 | f2 ed c4- | c4 z4 | z2 g4 g2 | e4 d4 | c4 c4 | c8 |] %28
w: Macht und|viel List|sein grau-|sam Rü-|* stung _ ist.|_|Auf Erd|ist nicht|seins glei-|chen.|
w: ||||||||||
V:3
 z4 z2 f2 | f4 f4 | c4 d2 f2- | f2 e2 d4 | c8 | z4 f4 | e4 d4 | c4 d2 B2- | B2 A2 G4 |1 F8 :|2 %10
w: Ein|fe- ste|Burg ist un-|* * ser|Gott,|ein|gu- te|Wehr und Waf-||fen.|
w: Er|hilft uns|frei aus al-|* * ler|Not,|die|uns itzt|hat be- trof-|||
 F4 z2 F2 || A3 B c2 d2- |"^-natural" d2 c4 B2 | c8 | F4 c4 | d4 e4 | f8 | e4 f4 | e4 d4 | c8 | %20
w: * Der|alt _ _ bö-|* * se|Feind,|mit Ernst|er's itzt|meint.|Grosz Macht|und viel|List|
w: fen. *||||||||||
 z2 d2 d4 | c2 d4 c2 | A8 | z4 f4 | e4 d4 | c4 d2 B2- | B2 A2 G4 | F8 |] %28
w: sein grau-|sam Rü- stung|ist.|Auf|Erd ist|nicht seins glei-||chen.|
w: ||||||||
V:4
 z4 z2 F,2 | F,4 F,4 | F,4 D,4- | D,2 E,2 F,2 G,2 | C,2 F,3 G, A,2 | G,4 F,3 G, | A,B, C4 B,2 | %7
w: Ein|fe- ste|Burg ist|_ _ un- ser|Gott, ein _ _|gu- * *|* * * te|
w: Er|hilft uns|frei aus|_ al- * ler|Not, die _ _|uns _ _|_ _ _ itzt|
 C4 z2 G,2 | D,2 F,2 C,4 |1 z8 :|2 z2 F,2 A,3 B, || C3 B, A,G, F,2- | F,E,D,C, D,4 | C,8 | %14
w: Wehr und|Waf- * fen.||Der alt- *|* * te _ bö-|* * * * se|Feind,|
w: hat be-|trof- * fen.||||||
 z2 F,4 A,2 | G,4 C,4 | F,8 | C,4 D,4 | E,3 F, G,4 | C,4 F,4 | z2 B,,2 B,,C,D,E, | F,2 B,,4 C,2 | %22
w: mit Ernst|er's itzt|meint.|Grosz Macht|und _ _|viel List|sein grau- * * *|sam Rü- stung|
w: ||||||||
 D,3 E, F,3 G, | A,B, C4 B,2 | C2 C,2 G,4 | C,4 B,,4 | F,4 C,4 | F,8 |] %28
w: ist. _ _ _|_ _ _ Auf|Erd ist nicht|seins glei-||chen.|
w: ||||||

